icons/svg/shields/h_historic_rune_stone_shield.svg

<?xml version="1.0" encoding="UTF-8" standalone="no"?>
<!-- Created with Inkscape (http://www.inkscape.org/) -->

<svg
   xmlns:dc="http://purl.org/dc/elements/1.1/"
   xmlns:cc="http://creativecommons.org/ns#"
   xmlns:rdf="http://www.w3.org/1999/02/22-rdf-syntax-ns#"
   xmlns:svg="http://www.w3.org/2000/svg"
   xmlns="http://www.w3.org/2000/svg"
   xmlns:sodipodi="http://sodipodi.sourceforge.net/DTD/sodipodi-0.dtd"
   xmlns:inkscape="http://www.inkscape.org/namespaces/inkscape"
   version="1.0"
   width="16"
   height="16"
   id="svg2"
   sodipodi:version="0.32"
   inkscape:version="0.91 r13725"
   sodipodi:docname="h_historic_rune_stone_shield.svg"
   inkscape:output_extension="org.inkscape.output.svg.inkscape">
  <metadata
     id="metadata10">
    <rdf:RDF>
      <cc:Work
         rdf:about="">
        <dc:format>image/svg+xml</dc:format>
        <dc:type
           rdf:resource="http://purl.org/dc/dcmitype/StillImage" />
        <cc:license
           rdf:resource="http://web.resource.org/cc/PublicDomain" />
        <dc:language>en</dc:language>
        <dc:title />
      </cc:Work>
    </rdf:RDF>
  </metadata>
  <sodipodi:namedview
     inkscape:window-height="1006"
     inkscape:window-width="1920"
     inkscape:pageshadow="2"
     inkscape:pageopacity="0.0"
     guidetolerance="10.0"
     gridtolerance="10.0"
     objecttolerance="10.0"
     borderopacity="1.0"
     bordercolor="#666666"
     pagecolor="#ffffff"
     id="base"
     showgrid="false"
     inkscape:zoom="22.627417"
     inkscape:cx="4.9900203"
     inkscape:cy="7.6840054"
     inkscape:window-x="1920"
     inkscape:window-y="0"
     inkscape:current-layer="svg2"
     inkscape:window-maximized="1" />
  <defs
     id="defs4">
    <inkscape:perspective
       sodipodi:type="inkscape:persp3d"
       inkscape:vp_x="0 : 290 : 1"
       inkscape:vp_y="0 : 1000 : 0"
       inkscape:vp_z="580 : 290 : 1"
       inkscape:persp3d-origin="290 : 193.33333 : 1"
       id="perspective12" />
    <style
       type="text/css"
       id="style6">
   
    .fil0 {fill:#EF7900}
   
  </style>
    <inkscape:perspective
       id="perspective6807"
       inkscape:persp3d-origin="29.116032 : 19.410688 : 1"
       inkscape:vp_z="58.232063 : 29.116032 : 1"
       inkscape:vp_y="0 : 1000 : 0"
       inkscape:vp_x="0 : 29.116032 : 1"
       sodipodi:type="inkscape:persp3d" />
  </defs>
  <path
     style="color:#000000;clip-rule:nonzero;display:inline;overflow:visible;visibility:visible;opacity:0.81099997;isolation:auto;mix-blend-mode:normal;color-interpolation:sRGB;color-interpolation-filters:linearRGB;solid-color:#000000;solid-opacity:1;fill:#ebe7e4;fill-opacity:1;fill-rule:nonzero;stroke:none;stroke-width:1;stroke-linecap:butt;stroke-linejoin:miter;stroke-miterlimit:4;stroke-dasharray:none;stroke-dashoffset:0;stroke-opacity:1;color-rendering:auto;image-rendering:auto;shape-rendering:auto;text-rendering:auto;enable-background:accumulate"
     d="M 9.0322794,1.5724074 6.4043693,1.6895754 C 6.1745624,1.6998697 5.9580667,1.8002996 5.8017912,1.9691047 l -0.93567,1.0076446 c -0.053788,0.058274 -0.0994,0.1235944 -0.13558,0.1941639 -0.788846,1.5318443 -0.654114,2.8448902 -0.6829219,3.7928946 -0.045071,1.4831651 0.048052,3.002697 0.3414609,5.4114862 0.043445,0.355694 0.299493,0.648889 0.6460977,0.739832 l 3.4966269,0.92228 c 0.069423,0.01817 0.1408185,0.02772 0.2125762,0.02845 0,0 0.1708331,-0.0043 0.2878984,-0.0067 0.08705,0.0173 0.1762262,0.02125 0.2644649,0.01172 l 2.9610017,-0.321375 c 0.06794,-0.0072 0.134784,-0.0224 0.199186,-0.04519 0,0 0.220111,-0.07813 0.461976,-0.167383 0.241865,-0.08925 0.425196,-0.144813 0.66451,-0.264464 0.530617,-0.265301 0.468104,-0.463305 0.533951,-0.614295 0.06584,-0.150992 0.10986,-0.292129 0.148971,-0.425153 0.07822,-0.266049 0.128885,-0.505496 0.128884,-0.505496 0.06593,-0.308055 -0.03893,-0.62776 -0.274507,-0.836924 L 13.56668,10.398503 c -0.08015,-0.07091 -0.172619,-0.12651 -0.272834,-0.164035 L 12.235986,9.8360969 C 12.294211,7.7909349 12.10208,5.4272336 12.10208,5.4272336 12.08586,5.2946409 12.039481,5.1675261 11.9665,5.0556437 L 11.164736,3.8220324 C 11.14817,3.7965693 11.130293,3.7719871 11.111174,3.7483844 10.540644,3.0457481 10.760807,3.4248196 9.8005666,1.965757 9.6315266,1.7085855 9.3397486,1.5592002 9.0322794,1.5724074 Z"
     id="path4187"
     inkscape:connector-curvature="0"
     sodipodi:nodetypes="cccccsccccccccssccccccccccccc" />
  <g
     transform="matrix(0.01141656,0,0,0.01141656,8.8505518,7.9912477)"
     id="g1327-3"
     style="opacity:0.81099997;fill:#ebe7e4;fill-opacity:1;stroke:#fefefe;stroke-width:65.80000305;stroke-linecap:butt;stroke-linejoin:round;stroke-miterlimit:4;stroke-dasharray:none;stroke-opacity:0.68181817" />
</svg>

<svg width="16" height="16" viewBox="0 0 16 16" fill="none" xmlns="http://www.w3.org/2000/svg">
<path opacity="0.811" d="M9.03228 1.5724L6.40437 1.68957C6.17456 1.69986 5.95807 1.80029 5.80179 1.9691L4.86612 2.97674C4.81233 3.03502 4.76672 3.10034 4.73054 3.17091C3.9417 4.70275 4.07643 6.0158 4.04762 6.9638C4.00255 8.44697 4.09567 9.9665 4.38908 12.3753C4.43252 12.731 4.68857 13.0242 5.03518 13.1151L8.53181 14.0374C8.60123 14.0556 8.67262 14.0651 8.74438 14.0659C8.74438 14.0659 8.91521 14.0616 9.03228 14.0592C9.11933 14.0765 9.20851 14.0804 9.29674 14.0709L12.2577 13.7495C12.3257 13.7423 12.3925 13.7271 12.4569 13.7043C12.4569 13.7043 12.677 13.6262 12.9189 13.5369C13.1608 13.4477 13.3441 13.3921 13.5834 13.2725C14.114 13.0072 14.0515 12.8092 14.1174 12.6582C14.1832 12.5072 14.2272 12.366 14.2663 12.233C14.3446 11.967 14.3952 11.7275 14.3952 11.7275C14.4612 11.4195 14.3563 11.0998 14.1207 10.8906L13.5667 10.3985C13.4865 10.3276 13.3941 10.272 13.2938 10.2345L12.236 9.83609C12.2942 7.79093 12.1021 5.42723 12.1021 5.42723C12.0859 5.29464 12.0395 5.16752 11.9665 5.05564L11.1647 3.82203C11.1482 3.79656 11.1303 3.77198 11.1112 3.74838C10.5406 3.04574 10.7608 3.42481 9.80057 1.96575C9.63153 1.70858 9.33975 1.5592 9.03228 1.5724Z" fill="#EBE7E4"/>
</svg>
